images/guitar3.svg

<svg id="guitar3" xmlns="http://www.w3.org/2000/svg" viewBox="0 0 49.98 89.14"><defs><style>.cls-1{fill:#231f20;}.cls-1,.cls-2{stroke:#231f20;stroke-miterlimit:10;stroke-width:0.5px;}.cls-2{fill:#fff;}</style></defs><path class="cls-1" d="M34.08,88.17s-12.68,2.54-18.31-2V74.93A13,13,0,0,0,7,65.35S15.2,7.36,13.8.29c0,0,16.06,1.94,23.1,5.32,0,0-1.41,38.61,7.61,57.48C44.51,63.09,31.55,73,34.08,88.17Z"/><path class="cls-2" d="M17.6,4.6l-1,4s9.86,4,17.19,3.75V7.78c-2-.53-4.11-1-6.3-1.5C24,5.55,20.72,5,17.6,4.6Z"/><path class="cls-1" d="M13.19,18.31H11.24s-8.57,4.88-7.5,0"/><path class="cls-1" d="M13.19,18.31H11.24s-8.57-4.89-7.5,0"/><path class="cls-1" d="M11.8,34h-2s-8.57,4.89-7.49,0"/><path class="cls-1" d="M11.8,34h-2s-8.57-4.88-7.49,0"/><path class="cls-1" d="M9.82,50.45l-1.93-.3S-1.34,53.61.49,49"/><path class="cls-1" d="M9.82,50.45l-1.93-.3S.2,44,.49,49"/><path class="cls-1" d="M36.78,17.71h2s8.56,4.88,7.49,0"/><path class="cls-1" d="M36.78,17.71h2s8.56-4.89,7.49,0"/><path class="cls-1" d="M38.17,33.4h1.95s8.57,4.88,7.5,0"/><path class="cls-1" d="M38.17,33.4h1.95s8.57-4.88,7.5,0"/><path class="cls-1" d="M40.16,49.85l1.92-.31s9.23,3.47,7.41-1.18"/><path class="cls-1" d="M40.16,49.85l1.92-.31s7.69-6.17,7.41-1.18"/><path class="cls-2" d="M18,88.18q.75-33.53,1.48-67.07l11.83-2.82,2.82,70.59Z"/></svg>

<?xml version="1.0" encoding="UTF-8" standalone="no"?>
<!DOCTYPE svg PUBLIC "-//W3C//DTD SVG 1.1//EN" "http://www.w3.org/Graphics/SVG/1.1/DTD/svg11.dtd">
<svg width="100%" height="100%" viewBox="0 0 90 90" version="1.1" xmlns="http://www.w3.org/2000/svg" xmlns:xlink="http://www.w3.org/1999/xlink" xml:space="preserve" xmlns:serif="http://www.serif.com/" style="fill-rule:evenodd;clip-rule:evenodd;stroke-linejoin:round;stroke-miterlimit:2;">
    <g transform="matrix(1.01592,0,0,1.01592,20.006,-0.294616)">
        <path d="M34.08,88.17C34.08,88.17 21.4,90.71 15.77,86.17L15.77,74.93C14.767,70.406 11.418,66.748 7,65.35C2.582,63.952 15.2,7.36 13.8,0.29C13.8,0.29 29.86,2.23 36.9,5.61C36.9,5.61 35.49,44.22 44.51,63.09C44.51,63.09 31.55,73 34.08,88.17Z" style="fill:rgb(35,31,32);fill-rule:nonzero;"/>
    </g>
    <g transform="matrix(1.01592,0,0,1.01592,20.006,-0.294616)">
        <path d="M17.6,4.6L16.6,8.6C16.6,8.6 26.46,12.6 33.79,12.35L33.79,7.78C31.79,7.25 29.68,6.78 27.49,6.28C24,5.55 20.72,5 17.6,4.6Z" style="fill:white;fill-rule:nonzero;"/>
    </g>
    <g transform="matrix(1.01592,0,0,1.01592,20.006,-0.294616)">
        <path d="M13.19,18.31L11.24,18.31C11.24,18.31 2.67,23.19 3.74,18.31" style="fill:rgb(35,31,32);fill-rule:nonzero;"/>
    </g>
    <g transform="matrix(1.01592,0,0,1.01592,20.006,-0.294616)">
        <path d="M13.19,18.31L11.24,18.31C11.24,18.31 2.67,13.42 3.74,18.31" style="fill:rgb(35,31,32);fill-rule:nonzero;"/>
    </g>
    <g transform="matrix(1.01592,0,0,1.01592,20.006,-0.294616)">
        <path d="M11.8,34L9.8,34C9.8,34 1.23,38.89 2.31,34" style="fill:rgb(35,31,32);fill-rule:nonzero;"/>
    </g>
    <g transform="matrix(1.01592,0,0,1.01592,20.006,-0.294616)">
        <path d="M11.8,34L9.8,34C9.8,34 1.23,29.12 2.31,34" style="fill:rgb(35,31,32);fill-rule:nonzero;"/>
    </g>
    <g transform="matrix(1.01592,0,0,1.01592,20.006,-0.294616)">
        <path d="M9.82,50.45L7.89,50.15C7.89,50.15 -1.34,53.61 0.49,49" style="fill:rgb(35,31,32);fill-rule:nonzero;"/>
    </g>
    <g transform="matrix(1.01592,0,0,1.01592,20.006,-0.294616)">
        <path d="M9.82,50.45L7.89,50.15C7.89,50.15 0.2,44 0.49,49" style="fill:rgb(35,31,32);fill-rule:nonzero;"/>
    </g>
    <g transform="matrix(1.01592,0,0,1.01592,20.006,-0.294616)">
        <path d="M36.78,17.71L38.78,17.71C38.78,17.71 47.34,22.59 46.27,17.71" style="fill:rgb(35,31,32);fill-rule:nonzero;"/>
    </g>
    <g transform="matrix(1.01592,0,0,1.01592,20.006,-0.294616)">
        <path d="M36.78,17.71L38.78,17.71C38.78,17.71 47.34,12.82 46.27,17.71" style="fill:rgb(35,31,32);fill-rule:nonzero;"/>
    </g>
    <g transform="matrix(1.01592,0,0,1.01592,20.006,-0.294616)">
        <path d="M38.17,33.4L40.12,33.4C40.12,33.4 48.69,38.28 47.62,33.4" style="fill:rgb(35,31,32);fill-rule:nonzero;"/>
    </g>
    <g transform="matrix(1.01592,0,0,1.01592,20.006,-0.294616)">
        <path d="M38.17,33.4L40.12,33.4C40.12,33.4 48.69,28.52 47.62,33.4" style="fill:rgb(35,31,32);fill-rule:nonzero;"/>
    </g>
    <g transform="matrix(1.01592,0,0,1.01592,20.006,-0.294616)">
        <path d="M40.16,49.85L42.08,49.54C42.08,49.54 51.31,53.01 49.49,48.36" style="fill:rgb(35,31,32);fill-rule:nonzero;"/>
    </g>
    <g transform="matrix(1.01592,0,0,1.01592,20.006,-0.294616)">
        <path d="M40.16,49.85L42.08,49.54C42.08,49.54 49.77,43.37 49.49,48.36" style="fill:rgb(35,31,32);fill-rule:nonzero;"/>
    </g>
    <g transform="matrix(1.01592,0,0,1.01592,20.006,-0.294616)">
        <path d="M18,88.18C18.5,65.827 18.993,43.47 19.48,21.11L31.31,18.29L34.13,88.88L18,88.18Z" style="fill:white;fill-rule:nonzero;"/>
    </g>
</svg>
